build/flags/Nicaragua.svg

<svg xmlns="http://www.w3.org/2000/svg" fill="none" viewBox="0 0 28 28" focusable="false"><defs><filter id="Nicaragua_svg__a"><feColorMatrix values="0 0 0 0 1 0 0 0 0 1 0 0 0 0 1 0 0 0 1 0"/></filter></defs><mask id="Nicaragua_svg__b" width="28" height="20" x="0" y="4" maskUnits="userSpaceOnUse"><g filter="url(#Nicaragua_svg__a)"><rect width="28" height="20" y="4" fill="#FFF" rx="3"/><rect width="27.5" height="19.5" x=".25" y="4.25" stroke="#F5F5F5" stroke-width=".5" rx="2.75"/></g></mask><path fill="none" d="M0 0H28V28H0z"/><rect width="28" height="20" y="4" fill="#FFF" rx="3"/><rect width="27.5" height="19.5" x=".25" y="4.25" stroke="#D6D8DD" stroke-width=".5" rx="2.75"/><g mask="url(#Nicaragua_svg__b)"><path fill="#1A78D6" fill-rule="evenodd" d="M0 10.6667L28 10.6667L28 4L0 4L0 10.6667Z"/><path d="M28 10.6667L28 4L0 4L0 10.6667L28 10.6667Z"/><path fill="#1A78D6" fill-rule="evenodd" d="M0 24L28 24L28 17.3333L0 17.3333L0 24Z"/><path d="M28 24L28 17.3333L0 17.3333L0 24L28 24Z"/><path fill="none" d="M14 16C15.1046 16 16 15.1046 16 14C16 12.8954 15.1046 12 14 12C12.8954 12 12 12.8954 12 14C12 15.1046 12.8954 16 14 16Z"/><path fill="#DACC92" fill-rule="evenodd" d="M16.6054 14.5723C16.6463 14.386 16.6667 14.1952 16.6667 14C16.6667 13.8048 16.6463 13.614 16.6054 13.4277C16.5707 13.2692 16.5211 13.1139 16.4568 12.9618C16.3925 12.8096 16.3155 12.6658 16.2259 12.5303C16.1277 12.3816 16.0142 12.243 15.8856 12.1144C15.757 11.9858 15.6184 11.8723 15.4697 11.7741C15.3342 11.6845 15.1904 11.6075 15.0382 11.5432C14.8861 11.4789 14.7308 11.4293 14.5723 11.3946C14.386 11.3537 14.1952 11.3333 14 11.3333C13.8048 11.3333 13.614 11.3537 13.4277 11.3946C13.2692 11.4293 13.1139 11.4789 12.9618 11.5432C12.8096 11.6075 12.6658 11.6845 12.5303 11.7741C12.3816 11.8723 12.243 11.9858 12.1144 12.1144C11.9858 12.243 11.8723 12.3816 11.7741 12.5303C11.6845 12.6658 11.6075 12.8096 11.5432 12.9618C11.4789 13.1139 11.4293 13.2692 11.3946 13.4277C11.3537 13.614 11.3333 13.8048 11.3333 14C11.3333 14.1952 11.3537 14.386 11.3946 14.5723C11.4293 14.7308 11.4789 14.8861 11.5432 15.0382C11.6075 15.1904 11.6845 15.3342 11.7741 15.4697C11.8723 15.6184 11.9858 15.757 12.1144 15.8856C12.243 16.0142 12.3816 16.1277 12.5303 16.2259C12.6658 16.3155 12.8096 16.3925 12.9618 16.4568C13.1139 16.5211 13.2692 16.5707 13.4277 16.6054C13.614 16.6463 13.8048 16.6667 14 16.6667C14.1952 16.6667 14.386 16.6463 14.5723 16.6054C14.7308 16.5707 14.8861 16.5211 15.0382 16.4568C15.1904 16.3925 15.3342 16.3155 15.4697 16.2259C15.6184 16.1277 15.757 16.0142 15.8856 15.8856C16.0142 15.757 16.1277 15.6184 16.2259 15.4697C16.3155 15.3342 16.3925 15.1904 16.4568 15.0382C16.5211 14.8861 16.5707 14.7308 16.6054 14.5723ZM16 14C16 15.1046 15.1046 16 14 16C12.8954 16 12 15.1046 12 14C12 12.8954 12.8954 12 14 12C15.1046 12 16 12.8954 16 14Z"/><path fill="#9BDDEE" fill-rule="evenodd" d="M14 12.6667L15.3333 15.3334L12.6666 15.3334L14 12.6667Z"/><path d="M15.3333 15.3334L12.6666 15.3334L14 12.6667L15.3333 15.3334Z"/></g></svg>

<svg xmlns="http://www.w3.org/2000/svg" fill="none" viewBox="0 0 28 28" focusable="false"><path fill="none" d="M0 0h28v28H0z"/><rect width="28" height="20" y="4" fill="#FFF" rx="3"/><rect width="27.5" height="19.5" x=".25" y="4.25" stroke="#D6D8DD" stroke-width=".5" rx="3"/><mask id="Nicaragua_svg__a" width="28" height="20" x="0" y="4" mask-type="alpha" maskUnits="userSpaceOnUse"><rect width="28" height="20" y="4" fill="#FFF" rx="3"/><rect width="27.5" height="19.5" x=".25" y="4.25" stroke="#F5F5F5" stroke-width=".5" rx="3"/></mask><g mask="url(#Nicaragua_svg__a)"><path fill="#1A78D6" fill-rule="evenodd" d="M0 10.66h28V4H0z"/><path d="M28 10.66V4H0v6.66z"/></g><g mask="url(#Nicaragua_svg__a)"><path fill="#1A78D6" fill-rule="evenodd" d="M0 24h28v-6.67H0z"/><path d="M28 24v-6.67H0V24z"/></g><g mask="url(#Nicaragua_svg__a)"><path fill="none" d="M14 16a2 2 0 1 0 0-4c-1.11 0-2 .89-2 2a2 2 0 0 0 2 2"/><path fill="#DBCD92" fill-rule="evenodd" d="M16.6 14.57q.06-.28.06-.57 0-.3-.06-.58-.05-.24-.15-.46-.09-.23-.23-.43-.15-.23-.34-.42t-.42-.34q-.2-.14-.43-.23-.22-.1-.46-.15-.28-.06-.57-.06-.3 0-.58.06-.24.05-.46.15-.23.09-.43.23-.23.15-.42.34t-.34.42q-.14.2-.23.43-.1.22-.15.46-.06.28-.06.58 0 .29.06.57.05.24.15.46.09.23.23.43.15.23.34.42t.42.34q.2.14.43.23.22.1.46.15.28.06.58.06.29 0 .57-.06.24-.05.46-.15.23-.09.43-.23.23-.15.42-.34t.34-.42q.14-.2.23-.43.1-.22.15-.46M16 14a2 2 0 1 1-4 0c0-1.11.89-2 2-2a2 2 0 0 1 2 2"/></g><g mask="url(#Nicaragua_svg__a)"><path fill="#9CDDEE" fill-rule="evenodd" d="m14 12.66 1.33 2.67h-2.67z"/><path d="M15.33 15.33h-2.67L14 12.66z"/></g></svg>
